X:1
T:The Lish Young Buy-a-Broom
M:4/4
L:1/4
K:G
 D| G2 G G| G A B G| A2 D D| D4| A A A A| A2 c c| B/2 A3/2 G A| B2 B- c|\
 d2 d B| c c3| B c d B| A2 A- d| d/2 G3/2 G G| G A B G| A/2- G3/2 F E|\
 D D E F| G2 G G| G2 B B| A/2 G3/2 F E| D2 D- D| B c d c| B/2 c3/2 d c|\
 B2 A G| G3||
